X:37
T:Madmoiselle Polka
C:Mezzaacapo
N:TablEdited by Mike Stangeland
L:1/8
Q:1/4=134
M:2/4
K:D
z4 | f/f/f e/e/e | dF Ac | e/e/e d/d/d | cE GA | d/d/d c/c/c | BA A2 | dc c2 | 
fe a2 | f/f/f e/e/e | dF Ac | e/e/e d/d/d | cE GA | de de | ce ce | fe ^ge | a2 A2 | 
f/f/f e/e/e | dF Ac | e/e/e d/d/d | cE GA | d/d/d c/c/c | BA A2 | dc c2 | fe a2 | 
f/f/f e/e/e | dF Ac | e/e/e d/d/d | B/4B/4B/4B/4B/4B/4B/4B/4 B/4B/4B/B | e/e/e/e/ eB | 
d/d/d/d/ dA | cc cB | A/4A/4A/4A/4A/4A/4A/4A/4 A/4A/4A/d | e/e/e/e/ eB | d/d/d/d/ dA | 
cB GE | D2 [d2F2] | e^A B2 | e=c ^c2 | de ^gf | e/4e/4e/4e/4e/4e/4e/4e/4 e/4e/4e/4e/4e/4e3/4 | 
a^g af | ^g/4g/4g/4g/4g/4g/4g/4g/4 g/4g/4g/4g/4g/4g/4g/ | ^gf ge | f/4f/4f/4f/4f/4f/4f/4f/4 f/4f/4f/4f/4f/4f/4f/ | 
e^A B2 | e=c ^c2 | de f^g | a/4a/4a/4a/4a/4a/4a/4a/4 a/4a/4a/4a/4a/4a/4a/ | ea ^gf | 
fe B^G | c/c/c B/B/B | EF/^G/ A/B/c/e/ | e^A B2 | e=c ^c2 | de ^gf | e/4e/4e/4e/4e/4e/4e/4e/4 e/4e/4e/4e/4e/4e/4e/ | 
a^g af | ^g/4g/4g/4g/4g/4g/4g/4g/4 g/4g/4g/4g/4g/4g/4g/ | ^gf ge | f/4f/4f/4f/4f/4f/4f/4f/4 f/4f/4f/4f/4f/4f/4f/ | 
e^A B2 | e=c ^c2 | de f^g | b/4b/4b/4b/4b/4b/4b/4b/4 b/4b/4b/a | ^gf ag | fe Ad | 
c/4c/4c/4c/4c/4c/4c/ B/4B/4B/4B/4B/4B/4B/ | Ae a2 | f/f/f e/e/e | dF Ac | e/e/e d/d/d | 
cE GA | d/d/d c/c/c | BA A2 | dc c2 | fe a2 | f/f/f e/e/e | dF Ac | e/e/e d/d/d | 
B/4B/4B/4B/4B/4B/4B/4B/4 B/4B/4B/B | e/e/e/e/ eB | d/d/d/d/ dA | cc cB | A/4A/4A/4A/4A/4A/4A/4A/4 A/4A/4A/d | 
e/e/e/e/ eB | d/d/d/d/ dA | cB GE | D2 [d2F2] | z4 | z4 | 
 

